X:219
M:C|
L:1/8
K:A
e|ceef aecA|ceeg a3e|ceeg aecA|B=GGB =g2 g>B:|
|:cAeA fAcA|cAeg a2ae|1 cAeA fAe=c|B=GGB =g2gB:|2 cA ec fde=c|

